X:1
T:Vanity
M:4/4
L:1/8
K:E
 B| e e/2e/2 fd eB GB| ee fe g3 g| ag fe df BB| e B/2B/2 BG A2|G-F|\
 E E/2E/2 GB e2 BB| g3/2 f/2 e2 a3/2 g/2 f2| b3/2 b/2 bb g2 fe| a3/2 a/2 ag fe|\
 gf| e2 e3/2 e/2 e z z||

